X:1
T: Bonnets o' Blue
C:
R:Jig
Q:180
K:D
M:6/8
L:1/16
|:A2|d2e2d2 f2g2a2|A2B2A2 A2B2c2|d4b2 a2f2d2|e6 e4A2|
d2e2d2 f2g2a2|A2B2A2 A4b2|a2g2f2 e2d2e2|d6 d4:|
d2|c2d2e2 e2f2e2|A6 A4d2|c2d2e2 e2f2g2|a6 a4g2|f4e2 d4c2|d4e2 f4f2|f2b2f2 e2d2c2|B6 B4A2|
d2d2d2 f2a2f2|d6 d4A2|d4b2 a2f2d2|e6 e4A2|d2e2d2 f2g2a2|A2B2A2 A4b2|a2g2f2 e2d2c2|d6 d'4b2|a2g2f2 e2d2e2|d6 d4||
